X:1
T:The Crib and the Cross
T:The Crib and the Cross
T:Bertha  Boulter
T:Benjamin Consitt Boulter, 1916
T:Public Domain Courtesy of the Cyber Hymnal™
C:Bertha  Boulter
Z:Public Domain
Z:Courtesy of the Cyber Hymnal™
%%score ( 1 2 ) ( 3 4 )
L:1/8
Q:1/4=85
M:6/8
K:Ab
V:1 treble 
V:2 treble 
V:3 bass 
V:4 bass 
V:1
 A2 A/A/ (AG)F | E2 C G2 G | c2 c/c/ (dc)d | e3- e2 [Ace]/[Ace]/ | %4
w: 1.~Where shall the Prince * of|Peace be born, And|where shall the Sav- * ior|rest? * In a|
w: 2.~Where shall the Prince * of|Peace be born, And|where shall the Sav- * ior|rest? * To a|
w: 3.~Where shall the Prince * of|Peace be born, And|where shall the Sav- * ior|rest? * In the|
w: 4.~Bare and un- worthy * this|heart of mine, Yet|there shall the Sav- * ior|rest; * For the|
 [GBe]2 [FAd] [EGc]2 [FAd]/[FAd]/ | [EGc]2 [DFB] [CEA]2 [EA]/[EA]/ | [=Ec]2 [Ec] A2 [FA] | %7
w: sta- ble bare, in a|crib for- lorn: For the|bu- sy inn doth|
w: ru- ined church, on a|Christ- mas morn, To a|world by hatred and|
w: hearts of men that are|crowned with thorn, In the|hearts of lone- ly|
w: al- tar lights on the|cra- dle shine, And the|glory of God fills|
 [Gc]2 [Gc] [FA]2 [FA] | (Ac)[Ae] [Af]2 [DG] | [CA]6 |] %10
w: cruel- ly scorn Its|great * and glor- ious|guest.|
w: war- fare torn, He|com- * eth the Sav-|ior|
w: women that mourn, In~the|hearts~of * the poor op-|pressed.|
w: the ru- ined shrine,|Quia * Jesus na- tus|est.|
V:2
 x6 | x6 | x6 | x6 | x6 | x6 | x3 (F>=E) x | x6 | A2 x4 | x6 |] %10
V:3
 A,2 A,/A,/ (A,G,)F, | E,2 C, G,2 G, | C2 C/C/ (DC)D | E3- E2 z | z6 | z4 z C/C/ | C2 C C2 [F,C] | %7
 [=E,C]2 [E,C] [_E,C]2 [=D,B,] | [E,C]2 [E,C] [E,D]2 [E,B,] | [A,,E,A,]6 |] %10
V:4
 x6 | x6 | x6 | x6 | x6 | x5 C/C/ | C2 C C2 x | x6 | x6 | x6 |] %10

